public/images/LogoCompensar.svg

<svg width="120" height="34" viewBox="0 0 120 34" fill="none" xmlns="http://www.w3.org/2000/svg">
<g clip-path="url(#clip0_30_262)">
<path fill-rule="evenodd" clip-rule="evenodd" d="M21.7991 6.01761C21.7991 9.05843 19.3561 11.5163 16.3512 11.5163C13.3464 11.5163 10.9034 9.05055 10.9034 6.01761C10.9034 2.97679 13.3464 0.518921 16.3512 0.518921C19.3561 0.518921 21.7991 2.98466 21.7991 6.01761Z" fill="#FF6600"/>
<path fill-rule="evenodd" clip-rule="evenodd" d="M32.6946 6.01761C32.6946 9.05843 30.2517 11.5163 27.2468 11.5163C24.2419 11.5163 21.799 9.05055 21.799 6.01761C21.799 2.98466 24.2341 0.518921 27.2468 0.518921C30.2595 0.518921 32.6946 2.98466 32.6946 6.01761Z" fill="#FF6600"/>
<path fill-rule="evenodd" clip-rule="evenodd" d="M21.7991 28.0203C21.7991 31.0611 19.3561 33.519 16.3512 33.519C13.3464 33.519 10.9034 31.0532 10.9034 28.0203C10.9034 24.9795 13.3464 22.5216 16.3512 22.5216C19.3561 22.5216 21.7991 24.9873 21.7991 28.0203Z" fill="#FF6600"/>
<path fill-rule="evenodd" clip-rule="evenodd" d="M32.6946 28.0203C32.6946 31.0611 30.2517 33.519 27.2468 33.519C24.2419 33.519 21.799 31.0532 21.799 28.0203C21.799 24.9873 24.2419 22.5216 27.2468 22.5216C30.2517 22.5216 32.6946 24.9873 32.6946 28.0203Z" fill="#FF6600"/>
<path fill-rule="evenodd" clip-rule="evenodd" d="M10.8956 17.0149C10.8956 20.0557 8.45268 22.5136 5.4478 22.5136C2.44293 22.5136 0 20.0557 0 17.0149C0 13.9741 2.44293 11.5162 5.4478 11.5162C8.45268 11.5162 10.8956 13.982 10.8956 17.0149Z" fill="#FF6600"/>
<path fill-rule="evenodd" clip-rule="evenodd" d="M21.7991 17.0149C21.7991 20.0557 19.3561 22.5136 16.3512 22.5136C13.3464 22.5136 10.9034 20.0479 10.9034 17.0149C10.9034 13.982 13.3464 11.5162 16.3512 11.5162C19.3561 11.5162 21.7991 13.982 21.7991 17.0149Z" fill="#FF6600"/>
<path fill-rule="evenodd" clip-rule="evenodd" d="M73.1239 12.4301C72.5308 12.4301 71.9766 12.5404 71.4615 12.761C70.9386 12.9815 70.4703 13.3045 70.0488 13.7221V12.627H68.3786V24.6643H70.0254V20.4812C70.4781 20.9223 70.962 21.2453 71.4927 21.4659C72.0234 21.6865 72.601 21.7968 73.2254 21.7968C73.9278 21.7968 74.5522 21.6865 75.0986 21.458C75.6449 21.2375 76.1522 20.883 76.6127 20.4182C77.042 19.977 77.3698 19.4807 77.5961 18.9135C77.8225 18.3542 77.9395 17.7555 77.9395 17.1331C77.9395 15.786 77.4869 14.6674 76.5737 13.7693C75.6605 12.8791 74.5132 12.4301 73.1317 12.4301H73.1239ZM75.2937 19.331C74.6771 19.9297 73.9356 20.2291 73.0771 20.2291C72.2186 20.2291 71.5083 19.9219 70.8995 19.2995C70.2907 18.6772 69.9864 17.9209 69.9864 17.0386C69.9864 16.2193 70.2986 15.4946 70.9151 14.8801C71.5317 14.2656 72.2498 13.9584 73.0615 13.9584C73.9434 13.9584 74.6927 14.2656 75.3093 14.8722C75.9181 15.4867 76.2303 16.2429 76.2303 17.1489C76.2303 18.0076 75.9181 18.7323 75.3015 19.331H75.2937ZM51.1688 13.7221C50.7083 13.2651 50.1932 12.9264 49.6234 12.6901C49.0537 12.4537 48.4371 12.3434 47.7659 12.3434C47.1415 12.3434 46.5405 12.4774 45.9629 12.7373C45.3854 12.9973 44.8625 13.3676 44.402 13.8481C43.9727 14.2893 43.6527 14.7777 43.4342 15.3291C43.2156 15.8806 43.1064 16.4714 43.1064 17.1016C43.1064 17.7318 43.2312 18.299 43.4732 18.882C43.7151 19.465 44.0508 19.977 44.48 20.4103C44.9327 20.8672 45.44 21.2217 46.0098 21.4502C46.5795 21.6865 47.1961 21.8047 47.8673 21.8047C48.5386 21.8047 49.1395 21.6786 49.7249 21.4186C50.3025 21.1587 50.8332 20.7884 51.2937 20.2842C51.6995 19.851 52.0117 19.3468 52.2381 18.7638C52.4644 18.1809 52.5737 17.59 52.5737 16.9756C52.5737 16.3611 52.4566 15.7939 52.2147 15.2267C51.9727 14.6674 51.6293 14.1553 51.1766 13.7063L51.1688 13.7221ZM49.9981 19.3153C49.4205 19.914 48.7103 20.2133 47.8595 20.2133C47.0088 20.2133 46.2673 19.914 45.6898 19.3232C45.1122 18.7244 44.8156 17.9839 44.8156 17.0937C44.8156 16.2036 45.1044 15.4473 45.6898 14.8486C46.2673 14.2499 46.9932 13.9505 47.8439 13.9505C48.6947 13.9505 49.4283 14.242 49.9981 14.8328C50.5756 15.4237 50.8644 16.172 50.8644 17.0701C50.8644 17.9682 50.5756 18.7166 49.9981 19.3153ZM37.4322 13.9584C38.0644 13.9584 38.6108 14.0923 39.0634 14.368C39.5161 14.6359 39.8908 15.0455 40.1795 15.597H41.9903C41.639 14.5729 41.0771 13.7772 40.3044 13.2179C39.5317 12.6507 38.6186 12.3671 37.5649 12.3671C36.8937 12.3671 36.2615 12.4931 35.6683 12.7452C35.0751 12.9973 34.5444 13.3754 34.0761 13.8639C33.6468 14.3129 33.3268 14.8092 33.1005 15.3528C32.882 15.8963 32.7727 16.4793 32.7727 17.1016C32.7727 17.724 32.8976 18.299 33.1395 18.882C33.3815 19.465 33.7171 19.977 34.1464 20.4103C34.599 20.8672 35.0986 21.2138 35.6527 21.4423C36.2069 21.6707 36.8312 21.7889 37.5103 21.7889C38.5951 21.7889 39.5161 21.5132 40.2732 20.9539C41.0303 20.3945 41.6 19.5831 41.9825 18.5039H40.1717C39.9064 19.0474 39.5473 19.465 39.079 19.7564C38.6108 20.0479 38.0878 20.1976 37.5103 20.1976C36.6517 20.1976 35.9259 19.8982 35.3483 19.3074C34.7708 18.7087 34.482 17.9682 34.482 17.078C34.482 16.1878 34.7708 15.4552 35.3405 14.8565C35.9103 14.2577 36.6049 13.9584 37.4244 13.9584H37.4322ZM63.2273 12.4774C62.5561 12.4774 61.9786 12.6034 61.5103 12.8555C61.042 13.1076 60.6673 13.4936 60.3786 14.0135C60.0976 13.4857 59.7308 13.0918 59.2859 12.8397C58.841 12.5877 58.2868 12.4695 57.6234 12.4695C57.1317 12.4695 56.6947 12.5719 56.3044 12.7688C55.922 12.9658 55.5786 13.2651 55.2664 13.6669V12.6192H53.799V21.5526H55.3678V16.9835C55.3678 15.9436 55.5395 15.1794 55.8751 14.6831C56.2107 14.1868 56.7337 13.9426 57.4439 13.9426C58.1542 13.9426 58.6303 14.1868 58.9503 14.6831C59.2625 15.1794 59.4264 15.9672 59.4264 17.0544V21.5604H61.0264V16.8889C61.0264 15.8254 61.1825 15.0613 61.4947 14.6122C61.8069 14.1632 62.322 13.9348 63.04 13.9348C63.6566 13.9348 64.1327 14.1475 64.4761 14.565C64.8195 14.9904 64.9912 15.5812 64.9912 16.3454V21.5526H66.6537V16.0933C66.6537 14.9904 66.3415 14.1159 65.7171 13.4621C65.0927 12.8004 64.2654 12.4774 63.2273 12.4774ZM112.71 13.7063C112.273 13.2651 111.797 12.9422 111.266 12.7216C110.736 12.501 110.158 12.3986 109.534 12.3986C108.831 12.3986 108.207 12.5089 107.661 12.7373C107.114 12.9579 106.607 13.3124 106.146 13.7772C105.725 14.2026 105.397 14.6989 105.171 15.2661C104.944 15.8333 104.827 16.4241 104.827 17.0544C104.827 18.4015 105.28 19.528 106.193 20.4182C107.106 21.3162 108.254 21.7653 109.627 21.7653C110.213 21.7653 110.775 21.655 111.29 21.4344C111.813 21.2138 112.281 20.8908 112.702 20.4654V21.5604H114.373V12.627H112.702V13.7063H112.71ZM111.867 19.3074C111.251 19.9219 110.533 20.2291 109.721 20.2291C108.831 20.2291 108.082 19.9219 107.465 19.3153C106.849 18.7008 106.544 17.9445 106.544 17.0386C106.544 16.1327 106.849 15.4473 107.465 14.8565C108.082 14.2577 108.823 13.9663 109.69 13.9663C110.556 13.9663 111.266 14.2814 111.883 14.9037C112.5 15.5261 112.804 16.2823 112.804 17.1568C112.804 17.9761 112.492 18.7008 111.875 19.3153L111.867 19.3074ZM118.767 12.7767C118.416 12.9658 118.103 13.2651 117.83 13.659V12.627H116.277V21.5604H117.924V16.5896C117.924 15.7703 118.088 15.1716 118.408 14.8013C118.728 14.4311 119.259 14.2184 120 14.1632V12.4852C119.532 12.4852 119.126 12.5877 118.767 12.7846V12.7767ZM101.924 16.3217C101.776 16.2666 101.581 16.1957 101.331 16.1011C100.441 15.7782 99.9961 15.3764 99.9961 14.8722C99.9961 14.5807 100.098 14.3365 100.293 14.1396C100.488 13.9426 100.738 13.8402 101.034 13.8402C101.362 13.8402 101.627 13.9348 101.815 14.1159C102.01 14.2971 102.119 14.5571 102.15 14.888H103.735C103.688 14.0844 103.438 13.4542 102.978 13.0052C102.517 12.5561 101.893 12.3356 101.112 12.3356C100.332 12.3356 99.7229 12.5877 99.2078 13.0997C98.6849 13.6118 98.4273 14.2262 98.4273 14.951C98.4273 15.3764 98.5054 15.7466 98.6615 16.0696C98.8176 16.3926 99.0595 16.6762 99.3873 16.9362C99.5668 17.078 99.9805 17.2671 100.628 17.5034C100.87 17.59 101.065 17.6609 101.198 17.7161C101.588 17.8658 101.869 18.0548 102.049 18.2675C102.221 18.4881 102.314 18.7481 102.314 19.0632C102.314 19.4177 102.189 19.717 101.94 19.9455C101.69 20.174 101.378 20.2921 100.995 20.2921C100.589 20.2921 100.254 20.1424 99.9805 19.8352C99.7073 19.528 99.5747 19.142 99.5747 18.6693H98.0215C98.0683 19.6383 98.3571 20.4024 98.88 20.9617C99.4029 21.5211 100.09 21.7968 100.941 21.7968C101.791 21.7968 102.486 21.5289 103.04 21.0011C103.594 20.4733 103.875 19.8037 103.875 19.0002C103.875 18.3148 103.727 17.7634 103.43 17.3537C103.134 16.9441 102.634 16.5974 101.932 16.3217H101.924ZM87.2898 14.0687C86.8371 13.6275 86.3922 13.2809 85.9473 13.0288C85.5025 12.7767 85.042 12.5955 84.5581 12.4931C83.762 12.3434 82.9893 12.375 82.2322 12.5877C81.4751 12.8082 80.8117 13.1942 80.242 13.7457C79.7659 14.2105 79.4068 14.7304 79.1805 15.2976C78.9542 15.8648 78.8605 16.4793 78.8917 17.141C78.9151 17.7555 79.0478 18.3306 79.2898 18.8662C79.5317 19.4019 79.8829 19.8982 80.3356 20.3394C80.7727 20.7648 81.2956 21.1035 81.8888 21.3477C82.482 21.592 83.0907 21.7259 83.7073 21.7416C84.3707 21.7574 84.9795 21.655 85.5493 21.4344C86.002 21.2611 86.4156 21.0011 86.8137 20.6703V18.3542C86.8137 18.3542 86.8137 18.4015 86.8137 18.4093C86.8137 18.3778 86.8059 18.2597 86.7356 18.3699C86.4547 18.7953 86.3454 18.8899 85.9629 19.268C85.4244 19.7958 84.7922 20.0794 84.0664 20.1346C83.3405 20.1897 82.6537 20.0006 82.0137 19.5674L87.4771 14.2499L87.2976 14.0687H87.2898ZM80.999 18.5039C80.6244 17.8579 80.4683 17.2119 80.5464 16.5502C80.6244 15.8884 80.9132 15.3134 81.4283 14.8171C81.9278 14.3286 82.5054 14.0529 83.1532 13.9899C83.801 13.9269 84.4722 14.0844 85.1512 14.4626L81.0068 18.496L80.999 18.5039ZM92.9873 12.4774C92.4566 12.4774 91.9805 12.5719 91.5668 12.761C91.1532 12.95 90.7707 13.2415 90.4273 13.6433V12.627H88.8429V21.5604H90.4976V17.5034C90.4976 16.2666 90.6849 15.3764 91.0517 14.8328C91.4186 14.2971 92.0195 14.0214 92.839 14.0214C93.5961 14.0214 94.1581 14.2499 94.5171 14.7068C94.8761 15.1637 95.0634 15.8648 95.0634 16.8101V21.5526H96.7259V16.4635C96.7259 15.1794 96.4059 14.1947 95.7659 13.5094C95.1259 12.824 94.2049 12.4774 93.0029 12.4774H92.9873Z" fill="black"/>
</g>
<defs>
<clipPath id="clip0_30_262">
<rect width="120" height="33" fill="white" transform="translate(0 0.518921)"/>
</clipPath>
</defs>
</svg>

<svg width="120" height="34" fill="none" xmlns="http://www.w3.org/2000/svg"><g clip-path="url(#clip0_30_262)" fill-rule="evenodd" clip-rule="evenodd"><path d="M21.8 6.018c0 3.04-2.444 5.498-5.449 5.498s-5.448-2.465-5.448-5.498c0-3.041 2.443-5.5 5.448-5.5 3.005 0 5.448 2.467 5.448 5.5z" fill="#F60"/><path d="M32.695 6.018c0 3.04-2.443 5.498-5.448 5.498-3.005 0-5.448-2.465-5.448-5.498 0-3.033 2.435-5.5 5.448-5.5 3.012 0 5.448 2.467 5.448 5.5zM21.8 28.02c0 3.041-2.444 5.499-5.449 5.499s-5.448-2.466-5.448-5.499c0-3.04 2.443-5.498 5.448-5.498 3.005 0 5.448 2.465 5.448 5.498z" fill="#F60"/><path d="M32.695 28.02c0 3.041-2.443 5.499-5.448 5.499-3.005 0-5.448-2.466-5.448-5.499 0-3.033 2.443-5.498 5.448-5.498 3.005 0 5.448 2.465 5.448 5.498zM10.896 17.015c0 3.04-2.443 5.499-5.448 5.499-3.005 0-5.448-2.458-5.448-5.5 0-3.04 2.443-5.498 5.448-5.498 3.005 0 5.448 2.466 5.448 5.499zm10.904 0c0 3.04-2.444 5.499-5.449 5.499s-5.448-2.466-5.448-5.5c0-3.032 2.443-5.498 5.448-5.498 3.005 0 5.448 2.466 5.448 5.499z" fill="#F60"/><path d="M73.124 12.43a4.17 4.17 0 00-1.662.331 4.46 4.46 0 00-1.413.961v-1.095h-1.67v12.037h1.646v-4.183c.453.441.937.764 1.468.985.53.22 1.108.33 1.732.33.703 0 1.327-.11 1.874-.338.546-.22 1.053-.575 1.514-1.04.429-.441.757-.937.983-1.505a4.705 4.705 0 00.343-1.78c0-1.347-.452-2.466-1.365-3.364-.913-.89-2.06-1.339-3.442-1.339h-.008zm2.17 6.901a3.074 3.074 0 01-2.217.898c-.858 0-1.569-.307-2.177-.93-.61-.622-.914-1.378-.914-2.26 0-.82.313-1.544.93-2.159.616-.614 1.334-.922 2.145-.922a3.09 3.09 0 012.248.914c.61.615.921 1.37.921 2.277 0 .859-.312 1.583-.928 2.182h-.008zm-24.125-5.609a4.758 4.758 0 00-1.546-1.032 4.786 4.786 0 00-1.857-.347c-.624 0-1.225.134-1.803.394-.578.26-1.1.63-1.561 1.111-.43.441-.75.93-.968 1.481a4.766 4.766 0 00-.328 1.773c0 .63.125 1.197.367 1.78a4.72 4.72 0 001.007 1.528c.453.457.96.812 1.53 1.04.57.236 1.186.355 1.857.355a4.46 4.46 0 001.858-.386 4.735 4.735 0 001.569-1.135c.406-.433.718-.937.944-1.52a4.877 4.877 0 00.336-1.788c0-.615-.117-1.182-.36-1.75a4.827 4.827 0 00-1.037-1.52l-.008.016zm-1.17 5.593c-.579.599-1.289.898-2.14.898-.85 0-1.592-.299-2.17-.89-.577-.599-.873-1.34-.873-2.23 0-.89.288-1.646.874-2.244.577-.6 1.303-.899 2.154-.899.85 0 1.584.292 2.154.883.578.59.866 1.339.866 2.237 0 .898-.288 1.647-.866 2.245zm-12.567-5.357c.632 0 1.179.134 1.631.41.453.268.828.678 1.116 1.229h1.811c-.351-1.024-.913-1.82-1.686-2.38-.772-.566-1.685-.85-2.74-.85a4.8 4.8 0 00-1.896.378 4.808 4.808 0 00-1.592 1.119c-.43.449-.75.945-.976 1.489a4.644 4.644 0 00-.327 1.749c0 .622.125 1.197.366 1.78a4.72 4.72 0 001.007 1.528c.453.457.953.804 1.507 1.032a4.852 4.852 0 001.857.347c1.085 0 2.006-.276 2.763-.835.757-.56 1.327-1.37 1.71-2.45h-1.811c-.266.543-.625.961-1.093 1.252a2.911 2.911 0 01-1.569.442c-.858 0-1.584-.3-2.162-.89-.577-.6-.866-1.34-.866-2.23 0-.89.289-1.623.858-2.221a2.767 2.767 0 012.084-.899h.008zm25.795-1.48c-.67 0-1.248.125-1.717.377-.468.253-.843.639-1.131 1.159-.281-.528-.648-.922-1.093-1.174-.445-.252-1-.37-1.663-.37-.491 0-.928.102-1.319.299-.382.197-.725.496-1.038.898v-1.048H53.8v8.934h1.569v-4.57c0-1.04.171-1.804.507-2.3.336-.496.859-.74 1.569-.74s1.186.244 1.506.74c.313.496.476 1.284.476 2.371v4.506h1.6v-4.67c0-1.064.156-1.828.469-2.277.312-.449.827-.677 1.545-.677.617 0 1.093.213 1.436.63.344.425.515 1.016.515 1.78v5.208h1.663v-5.46c0-1.103-.313-1.977-.937-2.63-.624-.663-1.452-.986-2.49-.986zm49.483 1.228a4.371 4.371 0 00-1.444-.984 4.462 4.462 0 00-1.732-.323c-.703 0-1.327.11-1.873.338-.547.22-1.054.575-1.515 1.04a4.43 4.43 0 00-.975 1.49 4.751 4.751 0 00-.344 1.787c0 1.348.453 2.474 1.366 3.364.913.898 2.061 1.347 3.434 1.347a4.215 4.215 0 003.075-1.3v1.095h1.671v-8.933h-1.671v1.08h.008zm-.843 5.601c-.616.615-1.334.922-2.146.922-.89 0-1.639-.307-2.256-.914-.616-.614-.921-1.37-.921-2.276 0-.906.305-1.592.921-2.183.617-.598 1.358-.89 2.225-.89.866 0 1.576.315 2.193.938.617.622.921 1.378.921 2.253 0 .82-.312 1.544-.929 2.158l-.008-.008zm6.9-6.53c-.351.189-.664.488-.937.882v-1.032h-1.553v8.933h1.647v-4.97c0-.82.164-1.418.484-1.789.32-.37.851-.583 1.592-.638v-1.678a2.51 2.51 0 00-1.233.3v-.008zm-16.843 3.545c-.148-.055-.343-.126-.593-.22-.89-.324-1.335-.726-1.335-1.23 0-.291.102-.536.297-.732.195-.197.445-.3.741-.3.328 0 .593.095.781.276.195.181.304.441.335.772h1.585c-.047-.804-.297-1.434-.757-1.883-.461-.449-1.085-.67-1.866-.67-.78 0-1.39.253-1.904.765a2.49 2.49 0 00-.78 1.851c0 .425.077.796.234 1.119.156.323.397.606.725.866.18.142.594.331 1.241.567.242.087.437.158.57.213.39.15.671.339.851.551.172.221.265.481.265.796 0 .355-.125.654-.374.883-.25.228-.562.346-.945.346-.406 0-.741-.15-1.014-.457-.274-.307-.406-.693-.406-1.166h-1.553c.046.97.335 1.733.858 2.293.523.56 1.21.835 2.061.835.85 0 1.545-.268 2.099-.796.554-.528.835-1.197.835-2 0-.686-.148-1.238-.445-1.647-.296-.41-.796-.757-1.498-1.032h-.008zM87.29 14.069a6.65 6.65 0 00-1.343-1.04 4.835 4.835 0 00-1.389-.536 5.034 5.034 0 00-2.326.095 4.71 4.71 0 00-1.99 1.158 4.511 4.511 0 00-1.062 1.552 4.362 4.362 0 00-.288 1.843c.023.615.156 1.19.398 1.725a4.867 4.867 0 002.599 2.482 5.096 5.096 0 001.818.394 4.72 4.72 0 001.842-.308 4.491 4.491 0 001.265-.764v-2.316.055c0-.031-.008-.15-.078-.04-.281.426-.39.52-.773.899a2.95 2.95 0 01-1.897.867c-.725.055-1.412-.134-2.052-.568l5.463-5.317-.18-.181h-.007zm-6.291 4.435c-.375-.646-.53-1.292-.453-1.954.078-.662.367-1.237.882-1.733.5-.488 1.077-.764 1.725-.827.648-.063 1.32.094 1.998.473l-4.144 4.033-.008.008zm11.988-6.027c-.53 0-1.006.095-1.42.284-.414.189-.796.48-1.14.882v-1.016h-1.584v8.933h1.655v-4.057c0-1.236.187-2.127.554-2.67.367-.536.967-.812 1.787-.812.757 0 1.32.229 1.678.686.36.457.546 1.158.546 2.103v4.743h1.663v-5.09c0-1.284-.32-2.268-.96-2.954-.64-.685-1.561-1.032-2.763-1.032h-.016z" fill="#000"/></g><defs><clipPath id="clip0_30_262"><path fill="#fff" transform="translate(0 .519)" d="M0 0h120v33H0z"/></clipPath></defs></svg>
